X:1
T:’Tis Jesus
T:’Tis Jesus
T:Robert Harkness
T:John Wilbur Chapman, 1909
T:Public Domain Courtesy of the Cyber Hymnal™
T:Public Domain Courtesy of the Cyber Hymnal™
C:Robert Harkness
Z:Public Domain
Z:Courtesy of the Cyber Hymnal™
%%score ( 1 2 ) ( 3 4 ) ( 5 6 )
L:1/8
M:6/4
K:G
V:1 treble 
V:2 treble 
V:3 treble 
V:4 treble 
V:5 bass 
V:6 bass 
V:1
"^Duet" D2 | [GB]4 [FB][DB] [Ec]4 [DB]-[DB] | ([CA-]2 [FA]2) [EA]2 [DB]4 [CA]-[CA] | %3
w: 1.~I|know of a world that~is *|sunk * in shame, Where *|
w: 2.~I|know of a book a *|marvel- * ous book, With~a *|
w: 3.~I|know of a home in~Im- *|manu- * el’s land, Where *|
 [B,G]2- [B,G]2 [EG]2 G4 [^DF]2 | E6- E4 EE | [Ac]4 [Ac]-[Ac] [^Ge]4 [GB]2 | %6
w: hearts * oft faint and|tire; * But I|know of~a * name, a|
w: message * for all who|hear; * And the|same dear * name, His|
w: hearts * ne’er faint nor|tire; * And His|mar- velous * name, His|
 [Ac]3- [Ac] [Gc]2 [Fd]4 [FA]-[FA] | ([GB]2 [DB]2) [B,G]2 [^CA]4 [CE]2 | [CA]6- [CA]4 D-D | %9
w: pre- * cious name, That~can *|set * that world on|fire; * Its *|
w: wonder- * ful name, Il- *|lumines * its pag- es|clear; * The *|
w: own * dear name, In- *|spires * the heav’n- ly|choir; * Hear~the *|
 [GB]2- [GB]2 [FB-][DB] [Ec]- [Ec]3 [DB]2 | [CA]- [CA]3 [DB]2 [B,G]- [B,G]3 ||"^Refrain" D2 | %12
w: sound * is sweet, its * let-|ters * flame. * *||
w: book * is~His Word, its * message|I’ve * heard. I *|know|
w: melo- * dy ringing, my * own|heart * singing. * *||
 [CE]2 [DF]>[DF] [DG]2 [DA]2 | [DB]2 [Ge]2 !fermata![Gd]2 D2 | (z2 [CF]2 [CE]2 [CD]2) | [B,DG]6 |] %16
w: ||||
w: of a name, a pre-|cious name, ’Tis Je-|||
w: ||||
V:2
 D2 | x12 | x12 | x6 (B,2 ^C2) x2 | E6- E4 EE | x12 | x12 | x12 | x10 D-D | x12 | x10 || D2 | x8 | %13
 x8 | A8 | x6 |] %16
V:3
 [Dd]2 | [GBdg]4 [FBdf][DFBd] [EGce]4 [DGBd]2 | [CFAc]2 [FAcf]2 [EFce]2 [DGBd]4 [CFAc]2 | %3
 [B,EGB]4 [B,EG]2 G4 [A,^DF]2 | [G,B,E]6- [G,B,E]4 [Ee]2 | [EAc]4 [EAc]2 [EBe]4 [EB]2 | %6
 [EAc]4 [EAc]2 [DAd]4 [DA]2 | [DGB]4 [DG]2 [^CA]4 [CE]2 | [CDA]6- [CDA]4 [Dd]2 | %9
 [GBdg]4 [FBdf][DFBd] [EGce]4 [DGBd]2 | [CFAc]4 [DFBd]2 [B,DGB]4 || x2 | x8 | x8 | x8 | x6 |] %16
V:4
 x2 | x12 | x12 | x6 (B,2 ^C2) x2 | x12 | x12 | x12 | x12 | x12 | x12 | x10 || x2 | x8 | x8 | x8 | %15
 x6 |] %16
V:5
 z2 | G,,6 [E,G,C]4 [D,G,B,]2 | D,,6 D,4 ^D,2 | E,4 E,2 B,,4 B,,2 | E,4 B,,2 E,,4 z2 | %5
 A,4 A,2 ^G,4 G,2 | A,4 G,2 F,4 F,2 | G,4 [B,,G,]2 [A,,G,]4 [A,,G,]2 | [D,F,]6 [D,,F,]4 z2 | %9
 G,,6 [E,G,C]4 [D,G,B,]2 | D,,4 D,2 G,,4 || [B,,G,]2 | [C,G,]2 [C,A,]>[C,A,] [B,,G,]2 [D,F,]2 | %13
 G,2 [G,C]2 !fermata![G,B,]2 z2 | z2 ([D,A,]2 [D,G,]2 [D,F,]2 | [G,,G,]6) |] %16
V:6
 x2 | x12 | x12 | x12 | x12 | x12 | x12 | x12 | x12 | x12 | x10 || x2 | x8 | G,2 x6 | x8 | x6 |] %16

